sprites/Twotone/web.svg

<svg xmlns="http://www.w3.org/2000/svg" width="24" height="24" viewBox="0 0 24 24"><path d="M0 0h24v24H0zm0 0h24v24H0zm0 0h24v24H0z"/><path opacity=".3" d="M4 9h10.5v3.5H4zm0 5.5h10.5V18H4zM16.5 9H20v9h-3.5z"/><path d="M20 4H4c-1.1 0-1.99.9-1.99 2L2 18c0 1.1.9 2 2 2h16c1.1 0 2-.9 2-2V6c0-1.1-.9-2-2-2zm-5.5 14H4v-3.5h10.5V18zm0-5.5H4V9h10.5v3.5zM20 18h-3.5V9H20v9z"/></svg>

<?xml version="1.0" encoding="utf-8"?>
<!-- Generator: Adobe Illustrator 23.0.1, SVG Export Plug-In . SVG Version: 6.00 Build 0)  -->
<svg version="1.1" id="Ebene_1" xmlns="http://www.w3.org/2000/svg" xmlns:xlink="http://www.w3.org/1999/xlink" x="0px" y="0px"
	 viewBox="0 0 24 24" style="enable-background:new 0 0 24 24;" xml:space="preserve">
<style type="text/css">
	.st0{opacity:0.3;enable-background:new    ;}
</style>
<path class="st0" d="M4,9h10.5v3.5H4V9z M4,14.5h10.5V18H4V14.5z M16.5,9H20v9h-3.5V9z"/>
<path d="M20,4H4C2.9,4,2,4.9,2,6l0,12c0,1.1,0.9,2,2,2h16c1.1,0,2-0.9,2-2V6C22,4.9,21.1,4,20,4z M14.5,18H4v-3.5h10.5V18z
	 M14.5,12.5H4V9h10.5V12.5z M20,18h-3.5V9H20V18z"/>
</svg>
